static/deno-looking-up.svg

<svg width="670" height="503" viewBox="0 0 670 503" fill="none" xmlns="http://www.w3.org/2000/svg">
<path d="M363.5 462.5L359.925 402.687L401.205 394.058L394.5 460L363.5 462.5Z" fill="black"/>
<path d="M529.709 418.62C531.517 418.62 533.092 417.386 533.526 415.63C533.959 413.875 533.139 412.05 531.538 411.209C509.893 399.828 486.056 382.931 476.508 355.411C466.271 325.907 448.844 295.187 419.614 268.686C391.938 243.593 366.399 239.386 335.739 234.335C334.646 234.155 333.547 233.973 332.442 233.79C332.443 233.645 332.445 233.496 332.446 233.343C332.472 230.887 332.5 227.352 332.507 223.025C332.523 214.373 332.46 202.544 332.145 189.848C331.83 177.16 331.261 163.568 330.263 151.399C329.271 139.314 327.835 128.346 325.702 121.058C317.255 92.2029 295.827 72.1946 265.463 68.5959C249.382 66.6901 236.207 69.4928 226.93 75.9671C217.559 82.5062 212.569 92.526 212.569 104C212.569 115.797 219.307 126.639 229.083 135.759C238.401 144.452 250.882 151.976 264.387 157.772C265.897 178.009 265.411 196.298 264.962 213.218C264.73 221.953 264.507 230.322 264.574 238.406C251.654 255.106 240.226 283.019 233.026 309.435C229.327 323.007 226.696 336.36 225.553 347.832C224.483 358.574 224.655 368.224 226.887 374.841C224.194 395.349 217.005 419.825 210.618 441.569C209.89 444.048 209.172 446.492 208.473 448.89C208.178 449.902 208.301 450.99 208.816 451.91C209.331 452.831 210.194 453.505 211.211 453.783C224.926 457.531 236.741 456.9 247.226 456.34C250.782 456.15 254.185 455.968 257.458 455.968C259.111 455.968 260.588 454.934 261.153 453.38C263.237 447.648 265.964 435.271 268.498 423.238C269.111 420.327 269.715 417.425 270.3 414.615C271.687 407.947 272.968 401.796 274.008 397.26C274.212 397.334 274.415 397.407 274.617 397.48C280.596 399.645 285.712 401.497 290.855 402.521C296.337 403.611 301.845 403.78 308.718 402.72V454.985C308.718 457.156 310.478 458.916 312.65 458.916H360.659C362.83 458.916 364.59 457.156 364.59 454.985C364.59 440.888 366.254 420.39 369.87 401.376L417.453 392.625C417.832 395.394 418.489 398.462 419.307 401.657C420.636 406.855 422.464 412.67 424.477 418.564C427.469 427.327 430.927 436.431 433.834 444.085C434.83 446.706 435.761 449.158 436.587 451.367C437.201 453.01 438.828 454.047 440.576 453.91C452.193 453.002 465.049 451.157 476.381 449.02C478.46 448.628 479.856 446.66 479.539 444.567C478.255 436.098 475.099 423.126 471.877 410.57C470.7 405.986 469.515 401.454 468.398 397.185C468.04 395.818 467.689 394.477 467.348 393.17C486.806 411.591 508.889 418.62 529.709 418.62Z" fill="white" stroke="black" stroke-width="7.86279" stroke-linecap="round" stroke-linejoin="round"/>
<ellipse cx="282.532" cy="87.4976" rx="5.53172" ry="5.49763" fill="black"/>
<path d="M62.8542 406.561C130.311 436.366 226.444 454.002 333.138 454.002C442.98 454.002 541.629 434.25 609.318 402.894C541.629 442.692 442.98 467.762 333.138 467.762C226.444 467.762 130.311 444.39 62.8542 406.561Z" fill="black"/>
<path d="M298.988 156.208C288.177 159.157 277.096 158.941 268 155L269 182.5C271.293 181.845 290.339 160.14 298.988 156.208Z" fill="#C4C4C4"/>
<path d="M271.469 416.663L288.177 403.886L271.469 397.006V416.663Z" fill="black"/>
<path d="M246.5 379.5C248.073 381.073 266.554 389.799 271.469 392.092L267.537 407.818C264.589 402.576 249.645 386.577 246.5 379.5Z" fill="#C4C4C4"/>
<path d="M365.822 397.989L369.754 384.229C369.754 388.161 374.996 393.73 377.617 396.023L365.822 397.989Z" fill="#C4C4C4"/>
<path d="M312.749 397.989C312.749 391.699 308.817 382.919 306.851 379.315C308.424 383.246 306.196 394.713 304.886 399.955C305.869 399.955 309.8 398.972 312.749 397.989Z" fill="#C4C4C4"/>
<path d="M419.779 94.78C414.111 79.3581 413.008 74.9787 414.435 73.5608C415.449 72.5528 417.039 72.9251 418.462 74.5052C420.491 76.7568 436.805 109.496 442.3 122.342C444.464 127.401 444.56 131.688 442.518 132.104C440.433 132.529 438.034 130.321 434.307 124.546C430.825 119.15 422.364 101.816 419.779 94.78Z" fill="#C4C4C4"/>
<path d="M499.699 140.056C488.113 125.662 481.404 114.991 481.404 110.956C481.404 103.832 491.022 113.614 519.769 149.98C526.348 158.301 527.489 161.055 524.358 161.055C519.192 161.055 510.955 154.041 499.699 140.056Z" fill="#C4C4C4"/>
<path d="M395.982 129.527C394.484 124.373 394.109 119.053 395.171 117.997C395.513 117.658 396.598 117.494 397.583 117.634C402.793 118.376 409.926 147.119 405.276 148.639C403.989 149.061 398.203 137.163 395.982 129.527Z" fill="#C4C4C4"/>
<path d="M389.27 224.263C383.785 219.329 373.919 182.074 371.319 156.476C370.751 150.886 370.814 150.59 372.567 150.59C374.847 150.59 375.347 151.845 378.757 166.1C382.642 182.343 388.531 203.612 389.637 205.389C390.187 206.273 393.671 222.012 393.671 223.61C393.671 225.52 391.092 225.903 389.27 224.263Z" fill="#C4C4C4"/>
<path d="M482.809 191.221C479.289 183.771 478.27 180.183 479.079 178.086C479.813 176.186 481.68 176.434 483.806 178.713C487.682 182.871 505.327 217.226 506.424 222.751C507.464 227.993 503.819 225.834 497.959 217.737C494.438 212.873 486.356 198.727 482.809 191.221Z" fill="#C4C4C4"/>
<path d="M436.971 246.514C428.543 222.59 423.421 202.051 424.803 197.721C425.391 195.882 426.692 195.483 428.46 196.603C429.757 197.424 449.105 254.931 451.511 265.114C453.668 274.242 453.863 278.779 452.101 278.779C449.617 278.779 444.471 267.806 436.971 246.514Z" fill="#C4C4C4"/>
<path d="M605.914 238.063C599.365 231.228 590.495 217.624 591.517 215.981C591.811 215.508 593.449 215.121 595.157 215.121C598.729 215.121 600.905 217.096 608.134 226.893C614.522 235.55 618.268 241.631 618.268 243.348C618.268 247.505 612.667 245.109 605.914 238.063Z" fill="#C4C4C4"/>
<path d="M508.665 278.096C501.994 268.839 490.308 245.23 489.526 239.43C489.098 236.259 489.21 236.049 491.338 236.049C493.003 236.049 494.376 237.079 496.498 239.92C499.725 244.241 505.969 253.947 505.969 254.645C505.969 254.893 508.088 258.757 510.678 263.232C519.529 278.525 523.129 287.429 520.99 288.742C518.988 289.973 514.314 285.935 508.665 278.096Z" fill="#C4C4C4"/>
<path d="M462.989 254.798C459.934 245.078 459.182 241.581 459.897 240.431C461.592 237.705 464.628 241.622 470.698 254.362C473.555 260.357 476.193 266.244 476.562 267.443C476.931 268.642 477.574 270.049 477.991 270.57C478.407 271.091 479.299 273.053 479.972 274.93C481.302 278.646 482.962 282.315 491.959 301.452C512.554 345.258 516.993 359.196 509.605 356.866C507.125 356.083 502.391 348.613 494.383 332.845L467.36 268.751C466.312 265.393 464.345 259.115 462.989 254.798Z" fill="#C4C4C4"/>
<path d="M596.741 318.021C578.823 288.602 564.338 259.757 566.077 256.961C567.078 255.352 569.858 256.106 571.91 258.543C573.039 259.883 575.739 263.831 577.91 267.315C580.082 270.798 583.194 275.686 584.826 278.177C592.517 289.905 609.82 317.663 614.646 326.016C620.448 336.054 621.345 339.928 618.251 341.574C614.388 343.63 608.232 336.889 596.741 318.021Z" fill="#C4C4C4"/>
<path d="M564.37 360.306C550.951 333.22 538.431 303.301 538.431 298.321C538.431 297.645 539.19 297.092 540.117 297.092C541.211 297.092 543.081 299.004 545.448 302.542C549.173 308.114 567.549 344.601 572.567 356.39C574.098 359.987 575.927 364.219 576.63 365.794C578.384 369.718 578.326 376.102 576.531 376.786C573.705 377.864 571.766 375.237 564.37 360.306Z" fill="#C4C4C4"/>
<path d="M187.487 168.71C190.247 161.433 200.436 142.665 201.93 142.104C203.873 141.376 205.831 144.613 205.139 147.41C204.798 148.785 200.728 158.54 196.094 169.087C191.46 179.635 187.668 188.532 187.668 188.859C187.668 190.508 182.202 197.41 180.896 197.41C177.929 197.41 179.968 188.53 187.487 168.71Z" fill="#C4C4C4"/>
<path d="M131.021 221.853C131.816 216.051 132.919 213.646 154.063 171.591C159.509 160.759 162.384 157.858 162.006 163.578C161.663 168.759 151.694 192.968 142.928 209.91C136.744 221.861 134.096 225.896 132.198 226.262C130.562 226.577 130.437 226.111 131.021 221.853Z" fill="#C4C4C4"/>
<path d="M214.904 218.255C215.599 216.245 218.643 207.812 221.668 199.514C225.067 190.191 227.687 184.424 228.527 184.419C230.888 184.404 228.678 194.046 220.851 217.91L209.622 254.41C205.532 268.969 200.597 283.869 199.119 286.126C197.392 288.761 193.89 289.153 192.992 286.812C192.426 285.337 193.832 280.323 201.658 255.91C205.585 243.662 211.56 226.35 212.703 223.91C213.219 222.81 214.209 220.265 214.904 218.255Z" fill="#C4C4C4"/>
<path d="M42.2269 242.225C42.9289 240.013 49.5769 230.026 54.9189 223.16C60.7789 215.627 64.4389 220.751 59.0369 228.928C52.3819 239.002 40.1879 248.647 42.2269 242.225Z" fill="#C4C4C4"/>
<path d="M167.104 251.061C167.893 249.328 169.908 244.832 171.582 241.069C173.477 236.808 175.104 234.396 175.896 234.673C177.916 235.379 177.211 241.403 174.407 247.41C172.031 252.5 170.112 257.723 161.18 283.41C157.503 293.984 147.132 317.838 143.66 323.709C140.907 328.363 138.101 328.382 138.302 323.746C138.415 321.141 144.431 304.665 149.195 293.91C150.565 290.818 155.863 277.596 158.211 271.41C158.941 269.485 160.918 265.09 162.603 261.644C164.289 258.198 165.668 255.116 165.668 254.795C165.668 254.475 166.314 252.794 167.104 251.061Z" fill="#C4C4C4"/>
<path d="M70.4029 279.16C66.9969 278.038 69.6669 269.569 77.0799 257.98C79.9619 253.475 81.1929 252.345 82.9479 252.594C84.8389 252.863 85.153 253.502 85.068 256.91C84.91 263.198 73.6789 280.239 70.4029 279.16Z" fill="#C4C4C4"/>
<path d="M88.748 327.41C93.012 317.909 98.459 308.279 100.486 306.66C102.54 305.018 104.149 305.08 105.624 306.857C106.892 308.384 105.406 314.025 99.9469 328.41C87.3709 361.545 76.3419 380.911 71.5159 378.329C70.4999 377.785 69.6679 376.419 69.6679 375.294C69.6679 373.209 78.834 348.983 83.055 339.91C84.3349 337.16 86.896 331.535 88.748 327.41Z" fill="#C4C4C4"/>
<path d="M165.668 340.866C165.668 340.506 166.403 338.664 167.301 336.772C168.198 334.88 169.436 333.507 170.051 333.722C172.054 334.422 171.072 341.685 167.39 353.41C165.403 359.735 162.353 370.31 160.612 376.91C156.709 391.708 153.92 397.91 151.168 397.91C149.427 397.91 149.176 397.263 149.227 392.91C149.279 388.431 154.572 367.542 156.677 363.504C157.134 362.627 158.514 359.21 159.743 355.91C160.971 352.61 162.807 348.022 163.822 345.715C164.837 343.408 165.668 341.226 165.668 340.866Z" fill="#C4C4C4"/>
<path d="M180.695 374.91C181.403 372.71 183.24 368.103 184.777 364.673C187.642 358.282 189.832 357.2 191.197 361.5C188.928 370.667 183.651 391.3 180.695 400.5C177.739 409.7 174.791 420.916 173.687 425.374C170.201 432.205 165.668 431.425 165.668 423.994L178.706 379.91C179.092 379.36 179.987 377.11 180.695 374.91Z" fill="#C4C4C4"/>
<path d="M123.219 413.41C120.383 413.41 121.854 396.773 125.163 391.418C126.127 389.859 128.435 391.413 128.92 393.947C130.043 399.824 126.064 413.41 123.219 413.41Z" fill="#C4C4C4"/>
</svg>

<?xml version="1.0" encoding="utf-8"?>
<!-- Generator: Adobe Illustrator 29.5.1, SVG Export Plug-In . SVG Version: 9.03 Build 0)  -->
<svg version="1.1" id="Layer_1" xmlns="http://www.w3.org/2000/svg" xmlns:xlink="http://www.w3.org/1999/xlink" x="0px" y="0px"
	 viewBox="0 0 670 503" style="enable-background:new 0 0 670 503;" xml:space="preserve">
<style type="text/css">
	.st0{fill:#FFFFFF;stroke:#000000;stroke-width:7.8628;stroke-linecap:round;stroke-linejoin:round;}
	.st1{fill:#C4C4C4;}
</style>
<path d="M363.5,462.5l-3.58-59.81l41.28-8.63L394.5,460L363.5,462.5z"/>
<path class="st0" d="M529.71,418.62c1.81,0,3.38-1.23,3.82-2.99c0.43-1.76-0.39-3.58-1.99-4.42c-21.65-11.38-45.48-28.28-55.03-55.8
	c-10.24-29.5-27.66-60.22-56.89-86.73c-27.68-25.09-53.22-29.3-83.88-34.35c-1.09-0.18-2.19-0.36-3.3-0.55c0-0.14,0-0.29,0-0.45
	c0.03-2.46,0.05-5.99,0.06-10.32c0.02-8.65-0.05-20.48-0.36-33.18c-0.32-12.69-0.88-26.28-1.88-38.45
	c-0.99-12.09-2.43-23.05-4.56-30.34c-8.45-28.86-29.88-48.86-60.24-52.46c-16.08-1.91-29.26,0.9-38.53,7.37
	c-9.37,6.54-14.36,16.56-14.36,28.03c0,11.8,6.74,22.64,16.51,31.76c9.32,8.69,21.8,16.22,35.3,22.01
	c1.51,20.24,1.02,38.53,0.58,55.45c-0.23,8.74-0.46,17.1-0.39,25.19c-12.92,16.7-24.35,44.61-31.55,71.03
	c-3.7,13.57-6.33,26.92-7.47,38.4c-1.07,10.74-0.9,20.39,1.33,27.01c-2.69,20.51-9.88,44.98-16.27,66.73
	c-0.73,2.48-1.45,4.92-2.14,7.32c-0.3,1.01-0.17,2.1,0.34,3.02c0.51,0.92,1.38,1.6,2.4,1.87c13.71,3.75,25.53,3.12,36.01,2.56
	c3.56-0.19,6.96-0.37,10.23-0.37c1.65,0,3.13-1.03,3.7-2.59c2.08-5.73,4.81-18.11,7.34-30.14c0.61-2.91,1.22-5.81,1.8-8.62
	c1.39-6.67,2.67-12.82,3.71-17.35c0.2,0.07,0.41,0.15,0.61,0.22c5.98,2.16,11.1,4.02,16.24,5.04c5.48,1.09,10.99,1.26,17.86,0.2
	v52.26c0,2.17,1.76,3.93,3.93,3.93h48.01c2.17,0,3.93-1.76,3.93-3.93c0-14.1,1.66-34.59,5.28-53.61l47.58-8.75
	c0.38,2.77,1.04,5.84,1.85,9.03c1.33,5.2,3.16,11.01,5.17,16.91c2.99,8.76,6.45,17.87,9.36,25.52c1,2.62,1.93,5.07,2.75,7.28
	c0.61,1.64,2.24,2.68,3.99,2.54c11.62-0.91,24.47-2.75,35.81-4.89c2.08-0.39,3.47-2.36,3.16-4.45c-1.28-8.47-4.44-21.44-7.66-34
	c-1.18-4.58-2.36-9.12-3.48-13.39c-0.36-1.37-0.71-2.71-1.05-4.01C486.81,411.59,508.89,418.62,529.71,418.62z"/>
<ellipse cx="282.53" cy="87.5" rx="5.53" ry="5.5"/>
<path d="M62.85,406.56C130.31,436.37,226.44,454,333.14,454c109.84,0,208.49-19.75,276.18-51.11
	c-67.69,39.8-166.34,64.87-276.18,64.87C226.44,467.76,130.31,444.39,62.85,406.56z"/>
<path class="st1" d="M298.99,156.21c-10.81,2.95-21.89,2.73-30.99-1.21l1,27.5C271.29,181.85,290.34,160.14,298.99,156.21z"/>
<path d="M271.47,416.66l16.71-12.78l-16.71-6.88V416.66z"/>
<path class="st1" d="M246.5,379.5c1.57,1.57,20.05,10.3,24.97,12.59l-3.93,15.73C264.59,402.58,249.65,386.58,246.5,379.5z"/>
<path class="st1" d="M365.82,397.99l3.93-13.76c0,3.93,5.24,9.5,7.86,11.79L365.82,397.99z"/>
<path class="st1" d="M312.75,397.99c0-6.29-3.93-15.07-5.9-18.67c1.57,3.93-0.65,15.4-1.97,20.64
	C305.87,399.95,309.8,398.97,312.75,397.99z"/>
<path class="st1" d="M419.78,94.78c-5.67-15.42-6.77-19.8-5.34-21.22c1.01-1.01,2.6-0.64,4.03,0.94
	c2.03,2.25,18.34,34.99,23.84,47.84c2.16,5.06,2.26,9.35,0.22,9.76c-2.08,0.43-4.48-1.78-8.21-7.56
	C430.83,119.15,422.36,101.82,419.78,94.78z"/>
<path class="st1" d="M499.7,140.06c-11.59-14.39-18.3-25.07-18.3-29.1c0-7.12,9.62,2.66,38.36,39.02
	c6.58,8.32,7.72,11.07,4.59,11.07C519.19,161.05,510.95,154.04,499.7,140.06z"/>
<path class="st1" d="M395.98,129.53c-1.5-5.15-1.87-10.47-0.81-11.53c0.34-0.34,1.43-0.5,2.41-0.36
	c5.21,0.74,12.34,29.49,7.69,31.01C403.99,149.06,398.2,137.16,395.98,129.53z"/>
<path class="st1" d="M389.27,224.26c-5.48-4.93-15.35-42.19-17.95-67.79c-0.57-5.59-0.51-5.89,1.25-5.89
	c2.28,0,2.78,1.26,6.19,15.51c3.89,16.24,9.77,37.51,10.88,39.29c0.55,0.88,4.03,16.62,4.03,18.22
	C393.67,225.52,391.09,225.9,389.27,224.26z"/>
<path class="st1" d="M482.81,191.22c-3.52-7.45-4.54-11.04-3.73-13.13c0.73-1.9,2.6-1.65,4.73,0.63
	c3.88,4.16,21.52,38.51,22.62,44.04c1.04,5.24-2.61,3.08-8.46-5.01C494.44,212.87,486.36,198.73,482.81,191.22z"/>
<path class="st1" d="M436.97,246.51c-8.43-23.92-13.55-44.46-12.17-48.79c0.59-1.84,1.89-2.24,3.66-1.12
	c1.3,0.82,20.65,58.33,23.05,68.51c2.16,9.13,2.35,13.66,0.59,13.66C449.62,278.78,444.47,267.81,436.97,246.51z"/>
<path class="st1" d="M605.91,238.06c-6.55-6.84-15.42-20.44-14.4-22.08c0.29-0.47,1.93-0.86,3.64-0.86c3.57,0,5.75,1.97,12.98,11.77
	c6.39,8.66,10.13,14.74,10.13,16.46C618.27,247.51,612.67,245.11,605.91,238.06z"/>
<path class="st1" d="M508.67,278.1c-6.67-9.26-18.36-32.87-19.14-38.67c-0.43-3.17-0.32-3.38,1.81-3.38c1.66,0,3.04,1.03,5.16,3.87
	c3.23,4.32,9.47,14.03,9.47,14.73c0,0.25,2.12,4.11,4.71,8.59c8.85,15.29,12.45,24.2,10.31,25.51
	C518.99,289.97,514.31,285.93,508.67,278.1z"/>
<path class="st1" d="M462.99,254.8c-3.06-9.72-3.81-13.22-3.09-14.37c1.7-2.73,4.73,1.19,10.8,13.93
	c2.86,5.99,5.49,11.88,5.86,13.08c0.37,1.2,1.01,2.61,1.43,3.13c0.42,0.52,1.31,2.48,1.98,4.36c1.33,3.72,2.99,7.39,11.99,26.52
	c20.6,43.81,25.03,57.74,17.65,55.41c-2.48-0.78-7.21-8.25-15.22-24.02l-27.02-64.09C466.31,265.39,464.35,259.11,462.99,254.8z"/>
<path class="st1" d="M596.74,318.02c-17.92-29.42-32.4-58.26-30.66-61.06c1-1.61,3.78-0.86,5.83,1.58c1.13,1.34,3.83,5.29,6,8.77
	c2.17,3.48,5.28,8.37,6.92,10.86c7.69,11.73,24.99,39.49,29.82,47.84c5.8,10.04,6.7,13.91,3.6,15.56
	C614.39,343.63,608.23,336.89,596.74,318.02z"/>
<path class="st1" d="M564.37,360.31c-13.42-27.09-25.94-57.01-25.94-61.98c0-0.68,0.76-1.23,1.69-1.23c1.09,0,2.96,1.91,5.33,5.45
	c3.72,5.57,22.1,42.06,27.12,53.85c1.53,3.6,3.36,7.83,4.06,9.4c1.75,3.92,1.7,10.31-0.1,10.99
	C573.71,377.86,571.77,375.24,564.37,360.31z"/>
<path class="st1" d="M187.49,168.71c2.76-7.28,12.95-26.05,14.44-26.61c1.94-0.73,3.9,2.51,3.21,5.31
	c-0.34,1.38-4.41,11.13-9.05,21.68c-4.63,10.55-8.43,19.44-8.43,19.77c0,1.65-5.47,8.55-6.77,8.55
	C177.93,197.41,179.97,188.53,187.49,168.71z"/>
<path class="st1" d="M131.02,221.85c0.79-5.8,1.9-8.21,23.04-50.26c5.45-10.83,8.32-13.73,7.94-8.01
	c-0.34,5.18-10.31,29.39-19.08,46.33c-6.18,11.95-8.83,15.99-10.73,16.35C130.56,226.58,130.44,226.11,131.02,221.85z"/>
<path class="st1" d="M214.9,218.26c0.69-2.01,3.74-10.44,6.76-18.74c3.4-9.32,6.02-15.09,6.86-15.1c2.36-0.01,0.15,9.63-7.68,33.49
	l-11.23,36.5c-4.09,14.56-9.02,29.46-10.5,31.72c-1.73,2.63-5.23,3.03-6.13,0.69c-0.57-1.48,0.84-6.49,8.67-30.9
	c3.93-12.25,9.9-29.56,11.04-32C213.22,222.81,214.21,220.26,214.9,218.26z"/>
<path class="st1" d="M42.23,242.23c0.7-2.21,7.35-12.2,12.69-19.07c5.86-7.53,9.52-2.41,4.12,5.77
	C52.38,239,40.19,248.65,42.23,242.23z"/>
<path class="st1" d="M167.1,251.06c0.79-1.73,2.8-6.23,4.48-9.99c1.9-4.26,3.52-6.67,4.31-6.4c2.02,0.71,1.32,6.73-1.49,12.74
	c-2.38,5.09-4.29,10.31-13.23,36c-3.68,10.57-14.05,34.43-17.52,40.3c-2.75,4.65-5.56,4.67-5.36,0.04
	c0.11-2.61,6.13-19.08,10.89-29.84c1.37-3.09,6.67-16.31,9.02-22.5c0.73-1.93,2.71-6.32,4.39-9.77c1.69-3.45,3.07-6.53,3.07-6.85
	C165.67,254.48,166.31,252.79,167.1,251.06z"/>
<path class="st1" d="M70.4,279.16c-3.41-1.12-0.74-9.59,6.68-21.18c2.88-4.51,4.11-5.64,5.87-5.39c1.89,0.27,2.21,0.91,2.12,4.32
	C84.91,263.2,73.68,280.24,70.4,279.16z"/>
<path class="st1" d="M88.75,327.41c4.26-9.5,9.71-19.13,11.74-20.75c2.05-1.64,3.66-1.58,5.14,0.2c1.27,1.53-0.22,7.17-5.68,21.55
	c-12.58,33.14-23.6,52.5-28.43,49.92c-1.02-0.54-1.85-1.91-1.85-3.04c0-2.08,9.17-26.31,13.39-35.38
	C84.33,337.16,86.9,331.54,88.75,327.41z"/>
<path class="st1" d="M165.67,340.87c0-0.36,0.74-2.2,1.63-4.09c0.9-1.89,2.14-3.27,2.75-3.05c2,0.7,1.02,7.96-2.66,19.69
	c-1.99,6.32-5.04,16.9-6.78,23.5c-3.9,14.8-6.69,21-9.44,21c-1.74,0-1.99-0.65-1.94-5c0.05-4.48,5.35-25.37,7.45-29.41
	c0.46-0.88,1.84-4.29,3.07-7.59c1.23-3.3,3.06-7.89,4.08-10.2S165.67,341.23,165.67,340.87z"/>
<path class="st1" d="M180.7,374.91c0.71-2.2,2.54-6.81,4.08-10.24c2.87-6.39,5.06-7.47,6.42-3.17c-2.27,9.17-7.55,29.8-10.5,39
	c-2.96,9.2-5.9,20.42-7.01,24.87c-3.49,6.83-8.02,6.05-8.02-1.38l13.04-44.08C179.09,379.36,179.99,377.11,180.7,374.91z"/>
<path class="st1" d="M123.22,413.41c-2.84,0-1.37-16.64,1.94-21.99c0.96-1.56,3.27-0.01,3.76,2.53
	C130.04,399.82,126.06,413.41,123.22,413.41z"/>
</svg>
